packages/core/src/svgs/tokens/branded/INT.svg

<svg width="24" height="24" viewBox="0 0 24 24" fill="none" xmlns="http://www.w3.org/2000/svg">
<path fill-rule="evenodd" clip-rule="evenodd" d="M11.9999 2L6.375 4.78124L11.9999 7.62498L17.625 4.78124L11.9999 2ZM8.87498 6.78123V12.7937L7 14.5875L8.87498 16.3563V22H15.125V16.3563L17 14.5875L15.125 13.0688V6.78123L11.9999 9.84366L8.87498 6.78123ZM14.5001 16.8998V21.4248H9.50008L14.5001 16.8998ZM14.5001 8.32486L8.00009 14.5436H7.99383L8.58758 15.2124V14.7623L9.50008 13.9811V20.5624L16.0314 14.5436L15.3688 13.8873V14.3811L14.5001 15.1311V8.32486ZM9.50008 8.36861V12.2748L11.3813 10.4436L9.50008 8.36861ZM12.0001 2.61238L7.61258 4.77488L12.0001 6.98737L16.3937 4.77488L12.0001 2.61238Z" fill="#DA1B28"/>
</svg>

<svg xmlns="http://www.w3.org/2000/svg" width="24" height="24" fill="none" viewBox="0 0 24 24">
    <path fill="#DA1B28" fill-rule="evenodd" d="M12 2 6.375 4.781 12 7.625l5.625-2.844zM8.875 6.781v6.013L7 14.587l1.875 1.77V22h6.25v-5.644L17 14.587l-1.875-1.518V6.78L12 9.844zM14.5 16.9v4.525h-5zm0-8.575L8 14.544h-.006l.594.668v-.45l.912-.78v6.58l6.531-6.018-.662-.657v.494l-.869.75zm-5 .044v3.906l1.881-1.831zM12 2.612 7.613 4.775 12 6.987l4.394-2.212z" clip-rule="evenodd"/>
</svg>
